X:1
T: Miss Barbara Hay's Favourite
C:R. Mackintosh
R:Jig
Q: 180
K:G
M:6/8
L:1/8
|:G3 gfg|d3 GAB|c2B A2G|FEF D3|
G3 gfg|d3 gab|agf ed^c|d3 D3:|
|:B1/2c1/2dB gdB|c2a acA|B1/2c1/2dB G1/2A1/2BG|EFG AFD|
B1/2c1/2dB gdB|c2a acA|Bcd cBA|1G3 G3:|2G3 G2d1/2c1/2|
|:Bcd ecB|ABc dBA|GAB EFG|
|1ABG FED|Bgd ecB|ABc dBG|EcB AGF|G3 B,2c:|
|2AGF EFD|GFG AGA|BAB cde|dBG AFD|G3 G,3||
